X: 673
T: Biandan ge
L: 1/8
M: 2/4
K: G
G2D2 [I:setbarnb 1]| 
G2D2 | 
d> g d B | 
dA2G | 
A4 | 
d g d g | 
d g d g | 
dA2G | 
A4 | 
d2A3/ A/ | 
d2A3/ A/ | 
G> F G A | 
D4 | 
G A G3/ A/ | 
D B,D2 | 
G A G3/ A/ | 
D/ E/ D/ B,/D2 | 
G> A d g/ e/ | 
d B A G | 
G F G A | 
D4 |]

@@@ Tune index: 9547
